!!!OTL: "Jaegerraenke" ES WAR  EIN JAEGER DER STIESS INS HORN
!!!ARE: Europa, Mitteleuropa, Deutschland
!!!SCT: Z1068
!!!YEM: Copyright 1995, estate of Helmut Schaffrath.
**kern
*ICvox
*Ivox
*M2/4
*k[b-e-]
*B-:
{8f
=1
8b-
16dd
16b-
8cc
16dd
16dd
=2
8g
8cc
8b-
16r}
{16b-
=3
8cc
8cc
8cc
16cc
16cc
=4
8dd
8cc
8b-}
{8b-
=5
8cc
8cc
8cc
8cc
=6
8dd
8cc
8b-}
{8f
=7
4g
4a
=8
4b-
8r}
==
!!!AGN: Romanze, Ballade, Jaeger - Lied
!!!ONB: ESAC (Essen Associative Code) Database: ZUCCAL
!!!AMT: simple duple
!!!AIN: vox
!!!EED: Helmut Schaffrath
!!!EEV: 1.0
*-
